img/icons/share.svg

<svg fill="none" height="24" viewBox="0 0 24 24" width="24" xmlns="http://www.w3.org/2000/svg"><path d="m17.625 15.5625c-.668 0-1.2844.2344-1.7672.6258l-4.8562-3.5133c.0813-.4463.0813-.9037 0-1.35l4.8562-3.51328c.4828.3914 1.0992.62578 1.7672.62578 1.5516 0 2.8125-1.26094 2.8125-2.8125s-1.2609-2.8125-2.8125-2.8125-2.8125 1.26094-2.8125 2.8125c0 .27187.0375.53203.1102.78047l-4.6125 3.33984c-.68442-.90703-1.77192-1.49531-2.9977-1.49531-2.07188 0-3.75 1.67812-3.75 3.75 0 2.0719 1.67812 3.75 3.75 3.75 1.22578 0 2.31328-.5883 2.9977-1.4953l4.6125 3.3398c-.0727.2485-.1102.511-.1102.7805 0 1.5516 1.2609 2.8125 2.8125 2.8125s2.8125-1.2609 2.8125-2.8125-1.2609-2.8125-2.8125-2.8125zm0-11.15625c.6727 0 1.2188.54609 1.2188 1.21875s-.5461 1.21875-1.2188 1.21875-1.2188-.54609-1.2188-1.21875.5461-1.21875 1.2188-1.21875zm-10.3125 9.65625c-1.13672 0-2.0625-.9258-2.0625-2.0625s.92578-2.0625 2.0625-2.0625 2.0625.9258 2.0625 2.0625-.92578 2.0625-2.0625 2.0625zm10.3125 5.5313c-.6727 0-1.2188-.5461-1.2188-1.2188s.5461-1.2188 1.2188-1.2188 1.2188.5461 1.2188 1.2188-.5461 1.2188-1.2188 1.2188z" fill="#8c8c8c"/></svg>

<svg width="24" height="24" viewBox="0 0 24 24" fill="none" xmlns="http://www.w3.org/2000/svg">
<path d="M17.625 15.5625C16.957 15.5625 16.3406 15.7969 15.8578 16.1883L11.0016 12.675C11.0829 12.2287 11.0829 11.7713 11.0016 11.325L15.8578 7.81172C16.3406 8.20312 16.957 8.4375 17.625 8.4375C19.1766 8.4375 20.4375 7.17656 20.4375 5.625C20.4375 4.07344 19.1766 2.8125 17.625 2.8125C16.0734 2.8125 14.8125 4.07344 14.8125 5.625C14.8125 5.89687 14.85 6.15703 14.9227 6.40547L10.3102 9.74531C9.62578 8.83828 8.53828 8.25 7.3125 8.25C5.24062 8.25 3.5625 9.92812 3.5625 12C3.5625 14.0719 5.24062 15.75 7.3125 15.75C8.53828 15.75 9.62578 15.1617 10.3102 14.2547L14.9227 17.5945C14.85 17.843 14.8125 18.1055 14.8125 18.375C14.8125 19.9266 16.0734 21.1875 17.625 21.1875C19.1766 21.1875 20.4375 19.9266 20.4375 18.375C20.4375 16.8234 19.1766 15.5625 17.625 15.5625ZM17.625 4.40625C18.2977 4.40625 18.8438 4.95234 18.8438 5.625C18.8438 6.29766 18.2977 6.84375 17.625 6.84375C16.9523 6.84375 16.4062 6.29766 16.4062 5.625C16.4062 4.95234 16.9523 4.40625 17.625 4.40625ZM7.3125 14.0625C6.17578 14.0625 5.25 13.1367 5.25 12C5.25 10.8633 6.17578 9.9375 7.3125 9.9375C8.44922 9.9375 9.375 10.8633 9.375 12C9.375 13.1367 8.44922 14.0625 7.3125 14.0625ZM17.625 19.5938C16.9523 19.5938 16.4062 19.0477 16.4062 18.375C16.4062 17.7023 16.9523 17.1562 17.625 17.1562C18.2977 17.1562 18.8438 17.7023 18.8438 18.375C18.8438 19.0477 18.2977 19.5938 17.625 19.5938Z" fill="#8C8C8C"/>
</svg>
